X:265
T:La Diablada
Z:Fernando Formigo
Z:Jack Campin, http://www.campin.me.uk/
F:Jack Campin's Nine-Note Tunebook
% last edit 03-02-2013
S:a PDF book "Andean Melodies" off the web
G:masked dance from the Altiplano, near Lake Titicaca
N:there are many versions of this dance on YouTube,
N:but none I can find using this tune
M:C
L:1/8
Q:1/4=132
K:C
P:Introduction
E2  F2  G>A G>F|E2  c2  G4|E2  F2  G>A G>F|E2    D2  C4||
G>F E>D C4     |G>F E>F D4|D>E F>G A>G F>G|A>G (3FED C4||
P:Huayno
M:2/4
L:1/16
G2E2 G2E2 |c8       |c2c d2c A2|G8       |
G2E2 G2E2 |c8       |c2c d2c A2|G8       |
F2A2 A2GF |E2G2 G2FE|D2E F2E D2|G8       |
F2A2 A2GF |E2G2 G2FE|D2E F2E D2|C3 G2E G2|
D2E F2E D2|C3 G2E G2|D2E F2E D2|C8      |]

